X: 91
M: 6/8
L: 1/8
K: G
V: 1
|:\
|:\
b3 gb2 | afa geg | faf gbd | ^c3 A3 |\
afa bgb | afa geg | faf ed^c | d3 D3 |
|:\
V: 2 clef=bass middle=d
|:\
g3  f3 | g3 d2B | c3 A3 | d3 D3 | G2g f3 | g3 d2B | c3 d3  | g3 G3 :|
|:\
g3  G3 | d3 ^c3 | d3 g3 | a3 A3 | d3  g3 | f3 e3  | d3 a2A | d3 D3  |
g3  f3 | g3 d2B | c3 A3 | d3 D3 | G2g f3 | g3 d2B | c3 d3  | g3 G3 :|
|:\
gbg a3 | fgf g3 | c3 A3 | d3 D3 | G2g f3 | g3 d2B | c3 d3  | g3 G3 :|

